packages/katcn/src/icons/svg/pipette.svg

<svg width="24" height="25" viewBox="0 0 24 25" fill="none" xmlns="http://www.w3.org/2000/svg">
<path d="M23 5.86802C23 4.76802 22.7 3.76802 21.9 3.06802C21.2 2.26802 20.2 1.96802 19.1 1.96802C18.1 1.96802 17.1 2.46802 16.3 3.26802L12.6 6.96802L12.1 6.46802C11.7 6.06802 11.1 6.06802 10.7 6.46802C10.3 6.86802 10.3 7.46802 10.7 7.86802L15.3 12.468L8 19.768C7.3 20.468 6.4 21.068 5.4 21.468C4.6 21.668 3.8 21.868 3 21.968C3.1 21.168 3.2 20.368 3.5 19.668C3.9 18.768 4.5 17.868 5.2 17.068L11 11.368C11.4 10.968 11.4 10.368 11 9.96802C10.6 9.56802 10 9.56802 9.6 9.96802L3.9 15.668C3 16.568 2.2 17.668 1.7 18.868C1.2 20.068 1 21.368 1 22.568C1 22.968 1.1 23.268 1.4 23.568C1.7 23.868 2 23.968 2.4 23.968C2.5 23.968 2.5 23.968 2.6 23.968C3.8 23.968 5 23.768 6.2 23.268C7.4 22.768 8.5 22.068 9.4 21.168L16.7 13.868L17.2 14.368C17.4 14.568 17.7 14.668 17.9 14.668C18.1 14.668 18.4 14.568 18.6 14.368C19 13.968 19 13.368 18.6 12.968L18.1 12.468L21.8 8.76802C22.5 7.96802 23 6.96802 23 5.86802ZM20.3 7.26802L16.7 10.968L14 8.26802L17.7 4.56802C18.1 4.26802 18.6 3.96802 19.2 3.96802C19.7 3.96802 20.2 4.16802 20.5 4.46802C20.8 4.76802 21 5.26802 21 5.76802C21 6.36802 20.7 6.86802 20.3 7.26802Z" fill="black"/>
</svg>

<svg xmlns="http://www.w3.org/2000/svg" fill="none" viewBox="0 0 24 25"><path fill="#000" d="M23 5.868c0-1.1-.3-2.1-1.1-2.8-.7-.8-1.7-1.1-2.8-1.1-1 0-2 .5-2.8 1.3l-3.7 3.7-.5-.5c-.4-.4-1-.4-1.4 0s-.4 1 0 1.4l4.6 4.6-7.3 7.3c-.7.7-1.6 1.3-2.6 1.7-.8.2-1.6.4-2.4.5.1-.8.2-1.6.5-2.3.4-.9 1-1.8 1.7-2.6l5.8-5.7c.4-.4.4-1 0-1.4s-1-.4-1.4 0l-5.7 5.7c-.9.9-1.7 2-2.2 3.2s-.7 2.5-.7 3.7c0 .4.1.7.4 1s.6.4 1 .4h.2c1.2 0 2.4-.2 3.6-.7s2.3-1.2 3.2-2.1l7.3-7.3.5.5c.2.2.5.3.7.3s.5-.1.7-.3c.4-.4.4-1 0-1.4l-.5-.5 3.7-3.7c.7-.8 1.2-1.8 1.2-2.9m-2.7 1.4-3.6 3.7-2.7-2.7 3.7-3.7c.4-.3.9-.6 1.5-.6.5 0 1 .2 1.3.5s.5.8.5 1.3c0 .6-.3 1.1-.7 1.5"/></svg>
